public/images/icons/nayakayp-linkedin.svg

<svg width="60" height="60" viewBox="0 0 60 60" fill="none" xmlns="http://www.w3.org/2000/svg">
<path d="M0 4.2975C0 1.92375 1.9725 0 4.40625 0H55.5938C58.0275 0 60 1.92375 60 4.2975V55.7025C60 58.0763 58.0275 60 55.5938 60H4.40625C1.9725 60 0 58.0763 0 55.7025V4.2975ZM18.5362 50.2275V23.1338H9.5325V50.2275H18.5362ZM14.0363 19.4325C17.175 19.4325 19.1287 17.355 19.1287 14.7525C19.0725 12.0938 17.1788 10.0725 14.0963 10.0725C11.0138 10.0725 9 12.0975 9 14.7525C9 17.355 10.9537 19.4325 13.9762 19.4325H14.0363ZM32.4412 50.2275V35.0963C32.4412 34.2863 32.5013 33.4762 32.7412 32.8988C33.39 31.2825 34.8713 29.6063 37.3613 29.6063C40.62 29.6063 41.9212 32.0888 41.9212 35.7337V50.2275H50.925V34.6875C50.925 26.3625 46.485 22.4925 40.56 22.4925C35.7825 22.4925 33.6413 25.1175 32.4412 26.9662V27.06H32.3813C32.4012 27.0287 32.4212 26.9974 32.4412 26.9662V23.1338H23.4412C23.5537 25.6763 23.4412 50.2275 23.4412 50.2275H32.4412Z" fill="#0C2C38"/>
</svg>

<svg width="60" height="60" fill="none" xmlns="http://www.w3.org/2000/svg">
    <path
        d="M0 4.298C0 1.924 1.972 0 4.406 0h51.188C58.028 0 60 1.924 60 4.298v51.404C60 58.077 58.028 60 55.594 60H4.406C1.973 60 0 58.076 0 55.703V4.297Zm18.536 45.93V23.133H9.532v27.093h9.004Zm-4.5-30.796c3.139 0 5.093-2.077 5.093-4.68-.056-2.658-1.95-4.68-5.033-4.68-3.082 0-5.096 2.026-5.096 4.68 0 2.603 1.954 4.68 4.976 4.68h.06Zm18.405 30.796V35.096c0-.81.06-1.62.3-2.197.649-1.617 2.13-3.293 4.62-3.293 3.259 0 4.56 2.483 4.56 6.128v14.493h9.004v-15.54c0-8.324-4.44-12.194-10.365-12.194-4.778 0-6.919 2.625-8.119 4.473v.094h-.06l.06-.094v-3.832h-9c.113 2.542 0 27.093 0 27.093h9Z"
        fill="#0C2C38" />
</svg>
